polaris-icons/icons/new-icons/BlogMajor.svg

<svg width="20" height="20" viewBox="0 0 20 20" fill="none" xmlns="http://www.w3.org/2000/svg">
<path d="M16.7464 3.10367C16.9417 2.9084 16.9417 2.59182 16.7464 2.39656L15.6858 1.3359C15.4905 1.14064 15.1739 1.14064 14.9787 1.3359L14.0215 2.29302L15.7893 4.06078L16.7464 3.10367Z" fill="#4A4A4A"/>
<path d="M15.0822 4.76789L13.3144 3.00012L9.61546 6.69909C9.24209 7.07247 9.03152 7.57834 9.02969 8.10637L9.02727 8.80419C9.02679 8.94294 9.13939 9.05553 9.27813 9.05505L9.97595 9.05263C10.504 9.0508 11.0099 8.84023 11.3832 8.46686L15.0822 4.76789Z" fill="#4A4A4A"/>
<path d="M5.5 4.75011C5.5 4.05976 6.05964 3.50011 6.75 3.50011H10C10.4142 3.50011 10.75 3.16433 10.75 2.75011C10.75 2.3359 10.4142 2.00011 10 2.00011H6.75C5.23122 2.00011 4 3.23133 4 4.75011V15.2501C4 16.7689 5.23122 18.0001 6.75 18.0001H13.25C14.7688 18.0001 16 16.7689 16 15.2501V8.00011C16 7.5859 15.6642 7.25011 15.25 7.25011C14.8358 7.25011 14.5 7.5859 14.5 8.00011V15.2501C14.5 15.9405 13.9404 16.5001 13.25 16.5001H6.75C6.05964 16.5001 5.5 15.9405 5.5 15.2501V4.75011Z" fill="#4A4A4A"/>
<path d="M7.75 10.5001C7.33579 10.5001 7 10.8359 7 11.2501C7 11.6643 7.33579 12.0001 7.75 12.0001H12.25C12.6642 12.0001 13 11.6643 13 11.2501C13 10.8359 12.6642 10.5001 12.25 10.5001H7.75Z" fill="#4A4A4A"/>
<path d="M7 14.2501C7 13.8359 7.33579 13.5001 7.75 13.5001H10.5001C10.9143 13.5001 11.2501 13.8359 11.2501 14.2501C11.2501 14.6643 10.9143 15.0001 10.5001 15.0001H7.75C7.33579 15.0001 7 14.6643 7 14.2501Z" fill="#4A4A4A"/>
</svg>

<svg viewBox="0 0 20 20" xmlns="http://www.w3.org/2000/svg"><path d="M16.746 3.104a.5.5 0 0 0 0-.707l-1.06-1.061a.5.5 0 0 0-.707 0l-.957.957 1.767 1.768.957-.957Z" fill="#5C5F62"/><path d="m15.082 4.768-1.768-1.768-3.699 3.7a2 2 0 0 0-.585 1.406l-.003.698a.25.25 0 0 0 .251.251l.698-.002a2 2 0 0 0 1.407-.586l3.7-3.7Z" fill="#5C5F62"/><path d="M5.5 4.75c0-.69.56-1.25 1.25-1.25h3.25a.75.75 0 0 0 0-1.5h-3.25a2.75 2.75 0 0 0-2.75 2.75v10.5a2.75 2.75 0 0 0 2.75 2.75h6.5a2.75 2.75 0 0 0 2.75-2.75v-7.25a.75.75 0 0 0-1.5 0v7.25c0 .69-.56 1.25-1.25 1.25h-6.5c-.69 0-1.25-.56-1.25-1.25v-10.5Z" fill="#5C5F62"/><path d="M7.75 10.5a.75.75 0 0 0 0 1.5h4.5a.75.75 0 0 0 0-1.5h-4.5Z" fill="#5C5F62"/><path d="M7 14.25a.75.75 0 0 1 .75-.75h2.75a.75.75 0 0 1 0 1.5h-2.75a.75.75 0 0 1-.75-.75Z" fill="#5C5F62"/></svg>
